assets/sonr-icons/mail-remove.svg

<svg xmlns="http://www.w3.org/2000/svg" width="24" height="24" fill="none" viewBox="0 0 24 24"><path fill="#000" d="M16.293 16.293C16.684 15.902 17.317 15.902 17.708 16.293L19.001 17.586L20.294 16.293C20.685 15.902 21.318 15.902 21.708 16.293C22.098 16.684 22.099 17.317 21.708 17.708L20.415 19.001L21.708 20.294C22.099 20.685 22.099 21.318 21.708 21.709C21.317 22.1 20.684 22.1 20.294 21.709L19.001 20.416L17.708 21.709C17.317 22.1 16.684 22.1 16.293 21.709C15.902 21.318 15.902 20.685 16.293 20.294L17.586 19.001L16.293 17.708C15.902 17.317 15.902 16.684 16.293 16.293ZM6.17602 8.43401C6.48902 7.97901 7.11102 7.86301 7.56602 8.17501L11.435 10.829C11.776 11.063 12.225 11.063 12.567 10.829L16.436 8.17501C16.891 7.86201 17.514 7.97801 17.826 8.43401C18.138 8.89001 18.023 9.51201 17.567 9.82401L13.698 12.478C12.675 13.179 11.326 13.179 10.303 12.478L6.43502 9.82401C5.98002 9.51101 5.86402 8.89001 6.17602 8.43401Z"/><path fill="#000" d="M7.75902 4H16.241C17.046 4 17.71 4 18.252 4.044C18.814 4.09 19.33 4.189 19.816 4.436C20.568 4.819 21.18 5.431 21.564 6.184C21.811 6.669 21.91 7.186 21.955 7.748C21.999 8.29 21.999 8.953 21.999 9.759V13.001C21.999 13.553 21.551 14.001 20.999 14.001C20.447 14.001 19.999 13.553 19.999 13.001V9.801C19.999 8.944 19.998 8.363 19.962 7.912C19.926 7.473 19.861 7.25 19.781 7.093C19.589 6.716 19.283 6.41 18.907 6.219C18.75 6.139 18.527 6.074 18.088 6.038C17.638 6.001 17.055 6.001 16.199 6.001H7.79902C6.94202 6.001 6.36002 6.002 5.91002 6.038C5.47102 6.074 5.24802 6.139 5.09102 6.219C4.71402 6.411 4.40802 6.717 4.21702 7.093C4.13802 7.25 4.07202 7.473 4.03602 7.912C3.99902 8.362 3.99902 8.945 3.99902 9.801V14.201C3.99902 15.058 4.00002 15.64 4.03602 16.09C4.07202 16.529 4.13702 16.752 4.21702 16.909C4.40902 17.286 4.71502 17.592 5.09102 17.783C5.24802 17.863 5.47102 17.928 5.91002 17.964C6.36002 18.001 6.94302 18.002 7.79902 18.002H12.999C13.551 18.002 13.999 18.45 13.999 19.002C13.999 19.554 13.551 20.002 12.999 20.002H7.75802C6.95302 20.002 6.28902 20.002 5.74702 19.958C5.18502 19.912 4.66802 19.813 4.18302 19.566C3.43002 19.183 2.81902 18.571 2.43502 17.818C2.18702 17.333 2.08902 16.816 2.04302 16.254C1.99902 15.713 1.99902 15.049 1.99902 14.243V9.76C1.99902 8.955 1.99902 8.291 2.04302 7.749C2.08902 7.187 2.18802 6.67 2.43502 6.184C2.81802 5.431 3.43002 4.82 4.18302 4.436C4.66802 4.188 5.18502 4.09 5.74702 4.044C6.28902 4 6.95302 4 7.75902 4Z"/></svg>

<svg xmlns="http://www.w3.org/2000/svg" width="24" height="24" fill="none"><path fill="currentColor" d="M16.293 16.293a1 1 0 0 1 1.415 0l1.293 1.293 1.293-1.293a1.001 1.001 0 0 1 1.414 1.415l-1.293 1.293 1.293 1.293a1 1 0 1 1-1.414 1.415l-1.293-1.293-1.293 1.293a1 1 0 1 1-1.415-1.415l1.293-1.293-1.293-1.293a1 1 0 0 1 0-1.415M6.176 8.434a1 1 0 0 1 1.39-.259l3.869 2.654a1 1 0 0 0 1.132 0l3.869-2.654a.999.999 0 1 1 1.131 1.649l-3.869 2.654a3 3 0 0 1-3.395 0L6.435 9.824a1 1 0 0 1-.259-1.39"/><path fill="currentColor" d="M7.759 4h8.482c.805 0 1.469 0 2.011.044.562.046 1.078.145 1.564.392a4 4 0 0 1 1.748 1.748c.247.485.346 1.002.391 1.564.044.542.044 1.205.044 2.011v3.242a1 1 0 0 1-2 0v-3.2c0-.857-.001-1.438-.037-1.889-.036-.439-.101-.662-.181-.819a2 2 0 0 0-.874-.874c-.157-.08-.38-.145-.819-.181-.45-.037-1.033-.037-1.889-.037h-8.4c-.857 0-1.439.001-1.889.037-.439.036-.662.101-.819.181a2 2 0 0 0-.874.874c-.079.157-.145.38-.181.819-.037.45-.037 1.033-.037 1.889v4.4c0 .857.001 1.439.037 1.889.036.439.101.662.181.819.192.377.498.683.874.874.157.08.38.145.819.181.45.037 1.033.038 1.889.038h5.2a1 1 0 0 1 0 2H7.758c-.805 0-1.469 0-2.011-.044-.562-.046-1.079-.145-1.564-.392a4 4 0 0 1-1.748-1.748c-.248-.485-.346-1.002-.392-1.564-.044-.541-.044-1.205-.044-2.011V9.76c0-.805 0-1.469.044-2.011.046-.562.145-1.079.392-1.565a4 4 0 0 1 1.748-1.748c.485-.248 1.002-.346 1.564-.392C6.289 4 6.953 4 7.759 4"/></svg>
